X:1
T:The Barkshire Tragedy
M:6/8
L:1/8
K:G
 B| ddc ABc| d2 B G2 G/2G/2| A3 D3| A3 D2 B| ddd ABc| d2 B G2 G| c2 B A2 G|\
 FFE D2 D| G2 G GBe| d3 c2 c| BBBA-G A| G3 z2||
